X:265
T: Liebesleid (3-67), S. 192
N: P1040
O: Lothringen
S: PINCK, Louis: Verklingende Weisen, Bd3, Metz 1933]
R: verlorene Ehre, Schwangerschaft]
M: 6/8
L: 1/16
K: Eb
G2 | G3GG2G2A2B2 | A4F2F4
F2 | A3AA2A2B2c2 | B4G2G4
E2 | E4E2E4E2 | C4c2c4
c2 | B4B2B2A2F2 | E8-E2

@@@ Tune index: 7815
